blockchains/ethereum/assets/0xEB4C2781e4ebA804CE9a9803C67d0893436bB27D/logo.svg

<svg fill="none" height="250" viewBox="0 0 250 250" width="250" xmlns="http://www.w3.org/2000/svg"><path clip-rule="evenodd" d="m18.4295 190.361c2.0558 3.345 4.2646 6.586 6.6167 9.712l15.3553-8.865c-2.4159-3.083-4.667-6.301-6.74-9.641zm201.2355-116.1821c1.851 3.4413 3.521 6.995 4.995 10.6485l15.356-8.8659c-1.544-3.6163-3.253-7.1451-5.119-10.5767zm9.157-18.8182-15.266 8.8137c-2.239-3.2535-4.653-6.3775-7.228-9.3584l15.46-8.9256c2.488 3.0407 4.836 6.2007 7.034 9.4703zm-200.7884 115.9243-15.266 8.814c-1.7296-3.517-3.29879-7.126-4.69804-10.819l15.46184-8.927c1.3038 3.743 2.8089 7.391 4.5022 10.932zm-26.50562-65.886c.83445-5.299 2.00174-10.4865 3.47981-15.5416l24.52831-14.1613c-2.9141 5.6309-5.3446 11.5526-7.2366 17.71zm43.60722-52.2406c14.9374-16.5948 34.9729-28.5097 57.6398-33.2783l33.556-19.373508c-3.732-.335307-7.511-.506592-11.33-.506592-50.3185 0-93.6928 29.7313-113.5139 72.5849zm103.8488-32.8931c-6.144-1.4009-12.488-2.2752-18.982-2.5728l24.556-14.17748c5.209 1.26281 10.29 2.85188 15.221 4.74436zm-43.679 228.1917c6.416 1.016 12.994 1.543 19.696 1.543 53.301 0 98.81-33.361 116.787-80.341l-28.385 16.388c-17.842 25.787-46.675 43.388-79.726 46.03zm118.901-82.179 22.594-13.044c1.129-4.889 1.971-9.888 2.507-14.979l-19.723 11.388c-1.347 5.736-3.153 11.295-5.378 16.635zm-113.036 65.262-22.6233 13.061c-4.8806-1.486-9.6347-3.262-14.2419-5.309l19.7412-11.397c5.5332 1.662 11.254 2.89 17.124 3.645zm-106.79948-73.656c-1.0688-3.93-1.95067-7.937-2.6355-12.011l16.43908-9.491c.4419 4.196 1.1253 8.319 2.0361 12.357zm193.56348-111.7533c-3.061-2.8324-6.288-5.4887-9.664-7.9529l16.426-9.483c3.158 2.6164 6.185 5.3852 9.071 8.2951zm-20.781-15.066 17.318-9.9985c-3.713-2.4867-7.567-4.7797-11.547-6.8646l-18.665 10.7762c4.451 1.7482 8.757 3.7848 12.894 6.0869zm-176.88892 102.1263 17.32922-10.005c.0798-4.82.477-9.562 1.1716-14.208l-18.656637 10.772c-.0719391 1.741-.108263 3.491-.108263 5.25 0 2.752.0889324 5.483.26408 8.191zm50.68362 92.523c3.5135 2.587 7.1673 4.996 10.9479 7.211l18.0104-10.398c-4.176-1.934-8.2068-4.129-12.0717-6.563zm181.4023-104.732c.049 1.333.074 2.673.074 4.018 0 3.277-.147 6.52-.434 9.722l18.01-10.398c-.023-4.425-.277-8.795-.749-13.1zm14.91-22.1403-16.148 9.3233c-.644-4.089-1.518-8.102-2.609-12.0246l15.651-9.0364c1.219 3.8356 2.258 7.7515 3.106 11.7377zm-189.8831 109.6283-16.1372 9.317c-3.0046-2.714-5.8767-5.572-8.6055-8.563l15.6469-9.033c2.8706 2.928 5.9077 5.693 9.0958 8.279z" fill="#b3bdc7" fill-rule="evenodd"/><ellipse cx="125.001" cy="125" fill="#f7931a" rx="97.6569" ry="97.6562"/><path d="m145.677 111.061c-3.081 12.072-21.696 5.824-27.733 4.283l5.453-21.361c6.037 1.541 25.495 4.4731 22.28 17.078zm-3.513 34.488c-3.38 13.279-25.727 5.961-32.989 4.111l6.087-23.51c7.234 1.858 30.514 5.572 26.971 19.436zm24.742-34.14c2.027-12.9835-7.83-20.0024-21.325-24.7596l4.487-17.5737-10.707-2.7415-4.374 17.1187c-2.8-.7185-5.689-1.396-8.561-2.0641l4.299-17.2274-10.671-2.7667-4.478 17.5564c-2.338-.5342-4.623-1.0841-6.837-1.6403l-14.7487-3.7782-2.9172 11.4418s7.9666 1.8751 7.7509 1.9821c3.086.3835 5.295 3.1687 4.967 6.2606l-5.0329 19.9729c.3766.096.7469.215 1.1084.358l-1.1289-.279-7.2188 28.016c-.6849 2.056-2.9011 3.175-4.963 2.505.1559.085-7.7681-1.992-7.7681-1.992l-5.3908 12.227 13.9273 3.555 7.6642 1.935-4.5206 17.758 10.6902 2.732 4.406-17.506c2.823.798 5.674 1.545 8.517 2.265l-4.476 17.513 10.69 2.732 4.555-17.739c18.279 3.569 31.993 2.243 37.863-14.239 4.714-13.293-.088-20.969-9.644-26.026 7.013-1.567 12.332-6.125 13.767-15.634z" fill="#fff"/></svg>

<svg width="250" height="250" viewBox="0 0 250 250" fill="none" xmlns="http://www.w3.org/2000/svg">
<path fill-rule="evenodd" clip-rule="evenodd" d="M18.4295 190.361C20.4853 193.706 22.6941 196.947 25.0462 200.073L40.4015 191.208C37.9856 188.125 35.7345 184.907 33.6615 181.567L18.4295 190.361ZM219.665 74.1789C221.516 77.6202 223.186 81.1739 224.66 84.8274L240.016 75.9615C238.472 72.3452 236.763 68.8164 234.897 65.3848L219.665 74.1789ZM228.822 55.3607L213.556 64.1744C211.317 60.9209 208.903 57.7969 206.328 54.816L221.788 45.8904C224.276 48.9311 226.624 52.0911 228.822 55.3607ZM28.0336 171.285L12.7676 180.099C11.038 176.582 9.46881 172.973 8.06956 169.28L23.5314 160.353C24.8352 164.096 26.3403 167.744 28.0336 171.285ZM1.52798 105.399C2.36243 100.1 3.52972 94.9125 5.00779 89.8574L29.5361 75.6961C26.622 81.327 24.1915 87.2487 22.2995 93.4061L1.52798 105.399ZM45.1352 53.1584C60.0726 36.5636 80.1081 24.6487 102.775 19.8801L136.331 0.506592C132.599 0.171285 128.82 0 125.001 0C74.6825 0 31.3082 29.7313 11.4871 72.5849L45.1352 53.1584ZM148.984 20.2653C142.84 18.8644 136.496 17.9901 130.002 17.6925L154.558 3.51502C159.767 4.77783 164.848 6.3669 169.779 8.25938L148.984 20.2653ZM105.305 248.457C111.721 249.473 118.299 250 125.001 250C178.302 250 223.811 216.639 241.788 169.659L213.403 186.047C195.561 211.834 166.728 229.435 133.677 232.077L105.305 248.457ZM224.206 166.278L246.8 153.234C247.929 148.345 248.771 143.346 249.307 138.255L229.584 149.643C228.237 155.379 226.431 160.938 224.206 166.278ZM111.17 231.54L88.5467 244.601C83.6661 243.115 78.912 241.339 74.3048 239.292L94.046 227.895C99.5792 229.557 105.3 230.785 111.17 231.54ZM4.37052 157.884C3.30172 153.954 2.41985 149.947 1.73502 145.873L18.1741 136.382C18.616 140.578 19.2994 144.701 20.2102 148.739L4.37052 157.884ZM197.934 46.1307C194.873 43.2983 191.646 40.642 188.27 38.1778L204.696 28.6948C207.854 31.3112 210.881 34.08 213.767 36.9899L197.934 46.1307ZM177.153 31.0647L194.471 21.0662C190.758 18.5795 186.904 16.2865 182.924 14.2016L164.259 24.9778C168.71 26.726 173.016 28.7626 177.153 31.0647ZM0.26408 133.191L17.5933 123.186C17.6731 118.366 18.0703 113.624 18.7649 108.978L0.108263 119.75C0.0363239 121.491 0 123.241 0 125C0 127.752 0.0889324 130.483 0.26408 133.191ZM50.9477 225.714C54.4612 228.301 58.115 230.71 61.8956 232.925L79.906 222.527C75.73 220.593 71.6992 218.398 67.8343 215.964L50.9477 225.714ZM232.35 120.982C232.399 122.315 232.424 123.655 232.424 125C232.424 128.277 232.277 131.52 231.99 134.722L250 124.324C249.977 119.899 249.723 115.529 249.251 111.224L232.35 120.982ZM247.26 98.8417L231.112 108.165C230.468 104.076 229.594 100.063 228.503 96.1404L244.154 87.104C245.373 90.9396 246.412 94.8555 247.26 98.8417ZM57.3769 208.47L41.2397 217.787C38.2351 215.073 35.363 212.215 32.6342 209.224L48.2811 200.191C51.1517 203.119 54.1888 205.884 57.3769 208.47Z" fill="#B3BDC7"/>
<ellipse cx="125.001" cy="125" rx="97.6569" ry="97.6562" fill="#F7931A"/>
<path d="M145.677 111.061C142.596 123.133 123.981 116.885 117.944 115.344L123.397 93.983C129.434 95.524 148.892 98.4561 145.677 111.061ZM142.164 145.549C138.784 158.828 116.437 151.51 109.175 149.66L115.262 126.15C122.496 128.008 145.776 131.722 142.233 145.586L142.164 145.549ZM166.906 111.409C168.933 98.4255 159.076 91.4066 145.581 86.6494L150.068 69.0757L139.361 66.3342L134.987 83.4529C132.187 82.7344 129.298 82.0569 126.426 81.3888L130.725 64.1614L120.054 61.3947L115.576 78.9511C113.238 78.4169 110.953 77.867 108.739 77.3108L93.9903 73.5326L91.0731 84.9744C91.0731 84.9744 99.0397 86.8495 98.824 86.9565C101.91 87.34 104.119 90.1252 103.791 93.2171L98.7581 113.19C99.1347 113.286 99.505 113.405 99.8665 113.548L98.7376 113.269L91.5188 141.285C90.8339 143.341 88.6177 144.46 86.5558 143.79C86.7117 143.875 78.7877 141.798 78.7877 141.798L73.3969 154.025L87.3242 157.58L94.9884 159.515L90.4678 177.273L101.158 180.005L105.564 162.499C108.387 163.297 111.238 164.044 114.081 164.764L109.605 182.277L120.295 185.009L124.85 167.27C143.129 170.839 156.843 169.513 162.713 153.031C167.427 139.738 162.625 132.062 153.069 127.005C160.082 125.438 165.401 120.88 166.836 111.371L166.906 111.409Z" fill="white"/>
</svg>
